src/lib/packages/icons/src/assets/line/message-check.svg

<svg xmlns="http://www.w3.org/2000/svg" width="24" height="24" fill="none"><path fill="currentColor" d="M3 21.75a.75.75 0 0 1-.75-.75V6c0-2.418 1.332-3.75 3.75-3.75h12c2.418 0 3.75 1.332 3.75 3.75v5a.75.75 0 0 1-1.5 0V6c0-1.577-.673-2.25-2.25-2.25H6c-1.577 0-2.25.673-2.25 2.25v13.189l1.72-1.72a.749.749 0 0 1 .53-.22h6a.75.75 0 0 1 0 1.5H6.311l-2.78 2.78A.747.747 0 0 1 3 21.75Zm15.197-3.22 3.333-3.333a.75.75 0 1 0-1.061-1.061l-2.803 2.803-1.137-1.136a.75.75 0 0 0-1.061 1.061l1.667 1.667a.748.748 0 0 0 1.062-.001Z"/></svg>

<svg width="24" height="24" viewBox="0 0 24 24" fill="none" xmlns="http://www.w3.org/2000/svg">
<path d="M3 21.75C2.903 21.75 2.80589 21.731 2.71289 21.693C2.43289 21.577 2.25 21.303 2.25 21V6C2.25 3.582 3.582 2.25 6 2.25H18C20.418 2.25 21.75 3.582 21.75 6V11C21.75 11.414 21.414 11.75 21 11.75C20.586 11.75 20.25 11.414 20.25 11V6C20.25 4.423 19.577 3.75 18 3.75H6C4.423 3.75 3.75 4.423 3.75 6V19.189L5.46997 17.469C5.61097 17.328 5.801 17.249 6 17.249H12C12.414 17.249 12.75 17.585 12.75 17.999C12.75 18.413 12.414 18.749 12 18.749H6.31104L3.53101 21.5291C3.38701 21.6741 3.195 21.75 3 21.75ZM18.197 18.53L21.53 15.197C21.823 14.904 21.823 14.429 21.53 14.136C21.237 13.843 20.762 13.843 20.469 14.136L17.666 16.939L16.5291 15.803C16.2361 15.51 15.761 15.51 15.468 15.803C15.175 16.096 15.175 16.571 15.468 16.864L17.135 18.531C17.281 18.677 17.473 18.751 17.665 18.751C17.857 18.751 18.051 18.677 18.197 18.53Z" fill="currentColor"/>
</svg>
